!!!!SEGMENT: pl-kk--kk-i-7--047-002_cadeac-pierre--missa-dei-patris-et-in-terra.krn
!!!cenid: 16xx:853
!!!COM: Cadéac, Pierre
!!!COM-rismID: pe30006011
!!!CDT: ~1500-~1599
!!!CNT: German
!!!OPR: Missa Dei Patris
!!!OTL: Et in terra
!!!OMV: 002
!!!PDT:
!!!AGN: Sacred; Mass
!!!YEC: Copyright 2022 Narodowy Instytut Fryderyka Chopina (https://polishscores.org)
!!!YEM: License CC-BY-4.0 (https://creativecommons.org/licenses/by/4.0)
!!!SMS-siglum: PL-Kk
!!!SMS-shelfmark: Kk.I.7
!!!SMS-shelfwork: 047-002 M
!!!SMS-variant:
!!!SMS-altvar:
!!!NIFC-rismSourceID: 300258077
!!!NIFC-rismChildID: 300258124
!!!NIFC-islandoraID: pl-kk:1956
!!!URL-pdf-islandora: https://repozytorium.nifc.pl/islandora/object/pl-kk%3A1956/datastream/PDF/view
!!!URL-scan: https://polish.musicsources.pl/pl/lokalizacje/galeria/rekopisy/6140 @EN{Scan on Polish Music Sources Website} @PL{Skany w portalu Dziedzictwo Muzyki Polskiej w otwartym dostępie}
!!!IIIF: https://repozytorium.nifc.pl/islandora/object/pl-kk%3A1956/datastream/IIIF/view
!!!ONB-nifc: UWAGA: C (skan 0042-0043, s.78-80), A (0126-0127, s.72-74), T(0202-0203, s.68-70), B(0291-0292, s.69-71). Części Mszy: 1. Kyrie, 2. Et in terra, 3. Sanctus, 4. Agnus Dei
!!!AIN: 1 alto 1 bass 1 soprn 1 tenor
!!!key:
**kern	**text	**kern	**text	**kern	**text	**kern	**text
*part4	*	*part3	*	*part2	*	*part1	*
*staff4	*	*staff3	*	*staff2	*	*staff1	*
*Ibass	*	*Itenor	*	*Ialto	*	*Isoprn	*
*I"BASSVS.	*	*I"TENOR.	*	*I"ALTVS.	*	*I"CANTVS.	*
*I'B	*	*I'T	*	*I'A	*	*I'S	*
*clefF4	*	*clefC3	*	*clefC3	*	*clefC1	*
*k[b-]	*	*k[b-]	*	*k[b-]	*	*k[b-]	*
*g:dor	*	*g:dor	*	*g:dor	*	*g:dor	*
*M2/1	*	*M2/1	*	*M2/1	*	*M2/1	*
*met(c|)	*	*met(c|)	*	*met(c|)	*	*met(c|)	*
=1	=1	=1	=1	=1	=1	=1	=1
*xywh-#291:7197,2298,6028,688	*	*xywh-#202:3653,3061,3505,627	*	*xywh-#126:1442,3584,5803,733	*	*xywh-#42:1412,2990,5690,825	*
!LO:TX:t=P:problem=znaki [B- BB-]	!	!	!	!	!	!	!
!LO:TX:t=P:problem=przed kluczem inicjał E	!	!LO:TX:t=P:problem=przed kluczem inicjał E	!	!LO:TX:t=P:problem=przed kluczem inicjał E	!	!LO:TX:t=P:problem=przed kluczem inicjał E	!
1.G\	Et	2.G/	Et	1.d\	Et	1.g\	Et
.	.	4G/	in	.	.	.	.
.	.	2G/	ter-	.	.	.	.
*2\right	*	*	*	*2\right	*	*	*
!LO:TX:t=P:problem=kreska pseudotaktowa	!	!	!	!	!	!	!
2G\	in	2G/	-ra	2d\	in	2g/	in
=2-	=2-	=2-	=2-	=2-	=2-	=2-	=2-
*	*	*	*	*	*	*2\right	*
!	!	!LO:TX:t=P:problem=kreska pseudotaktowa	!	!	!	!	!
2G\	ter-	1B-/	pax	2d\	ter-	2g\	ter-
!	!	!	!	!LO:TX:t=P:problem=kreska pseudotaktowa	!	!LO:TX:t=P:problem=kreska pseudotaktowa	!
2G\	-ra	.	.	2d\	-ra	2g\	-ra
*	*	*2\right	*	*	*	*	*
2F\	pax	2c\	ho-	2.f\	pax	2.a\	pax
!LO:TX:t=P:problem=kreska pseudotaktowa	!	!	!	!	!	!	!
2D\	ho-	2d\	-mi-	.	.	.	.
.	.	.	.	4f\	ho-	4a\	ho-
=3-	=3-	=3-	=3-	=3-	=3-	=3-	=3-
2F\	-mi-	2c\	-ni-	2f\	-mi-	2a\	-mi-
!	!	!	!	!LO:TX:t=P:problem=kreska pseudotaktowa	!	!LO:TX:t=P:problem=kreska pseudotaktowa	!
2F\	-ni-	2A/	-b(us)	2f\	-ni-	2a\	-ni-
2C,</	-b(us)	1.c\	bo-	2e\	-b(us)	2g,<\	-b(us)
!LO:TX:t=P:problem=kreska pseudotaktowa	!	!	!	!	!	!	!
2C/	Bo-	.	.	2e\	bo-	2.cc\	bo-
=4-	=4-	=4-	=4-	=4-	=4-	=4-	=4-
2.F\	-nae	.	.	1.f\	-nae	.	.
.	.	.	.	.	.	4b-\	.
!	!	!LO:TX:t=P:problem=kreska pseudotaktowa	!	!	!	!	!
.	.	2c\	-nae	.	.	4a\	.
!	!	!	!	!	!	!LO:TX:t=P:problem=kreska pseudotaktowa	!
4E\	.	.	.	.	.	4g\	.
2D/	Vo-	2d\	vo-	.	.	2f,</	-nae
!LO:TX:t=P:problem=kreska pseudotaktowa	!	!	!	!	!	!	!
2BB-/	-lun-	2d\	-lun-	2f\	Vo-	2b-\	Vo-
=5-	=5-	=5-	=5-	=5-	=5-	=5-	=5-
2C/	-ta-	4c/	-ta-	2e\	-lun-	2a\	-lun-
.	.	4B-/	.	.	.	.	.
!	!	!	!	!LO:TX:t=P:problem=kreska pseudotaktowa	!	!	!
2E\	.	4A/	.	2c\	-ta-	1g\	-ta-
.	.	4G/	.	.	.	.	.
!LO:TX:t=P:problem=kreska pseudotaktowa	!	!	!	!LO:TX:t=P:problem=kreska pseudotaktowa	!	!	!
1D\	.	1A/	.	1d\	-tis.	.	.
.	.	.	.	.	.	2f#X/	.
=6-	=6-	=6-	=6-	=6-	=6-	=6-	=6-
!LO:TX:t=P:problem=kreska pseudotaktowa	!	!LO:TX:t=P:problem=kreska pseudotaktowa	!	!	!	!LO:TX:t=P:problem=kreska pseudotaktowa	!
1GG/,<	-tis.	1G/	-tis	2r	.	0g\	-tis
.	.	.	.	2.d\	Lau-	.	.
1G\	Lau-	2r	.	.	.	.	.
.	.	.	.	4c/	.	.	.
!	!	!	!	!LO:TX:t=P:problem=kreska pseudotaktowa	!	!	!
.	.	1d\	Lau-	2B-/	-da-	.	.
=7-	=7-	=7-	=7-	=7-	=7-	=7-	=7-
!	!	!	!	!	!	!LO:TX:t=P:problem=kreska pseudotaktowa	!
2F\	-da-	.	.	2A/	-m(us)	00r	.
*	*	*custos:B	*	*	*	*	*
2E\	-m(us)	2c\	-da-	2G/	.	.	.
!LO:TX:t=P:problem=kreska pseudotaktowa	!	!LO:LB:g=original	!	!LO:TX:t=P:problem=kreska pseudotaktowa	!	!	!
*	*	*xywh-#202:1415,3559,5613,795	*	*	*	*	*
1D\	Te	2B-/	-mus	1d\	Te.	.	.
.	.	1A/	Te	.	.	.	.
=8-	=8-	=8-	=8-	=8-	=8-	=8-	=8-
2C/	be-	.	.	00r	.	.	.
2D\	-ne-	2F/	be-	.	.	.	.
2.E\	-di-	2G/	-ne-	.	.	.	.
.	.	2B-/	-di-	.	.	.	.
!LO:TX:t=P:problem=kreska pseudotaktowa	!	!	!	!	!	!	!
4D/	.	.	.	.	.	.	.
=9-	=9-	=9-	=9-	=9-	=9-	=9-	=9-
4C/	.	2A/	-ci-	.	.	2r	.
4BB-/	.	.	.	.	.	.	.
4AA/	.	1G/	.	.	.	1cc\	a-
4GG/	.	.	.	.	.	.	.
2AA/	-ci-	.	.	.	.	.	.
!	!	!	!	!	!	!LO:TX:t=P:problem=kreska pseudotaktowa	!
2AA/	-m(us)	2F/	-m(us)	.	.	2cc\	-do-
=10-	=10-	=10-	=10-	=10-	=10-	=10-	=10-
!LO:TX:t=P:problem=kreska pseudotaktowa	!	!LO:TX:t=P:problem=kreska pseudotaktowa	!	!	!	!	!
0GG/	Te.	0G/	Te	2r	.	2b-\	-ra-
.	.	.	.	2g\	Glo-	2g\	-m(us)
.	.	.	.	2g\	-ri-	2b-,<\	Te
!	!	!	!	!LO:TX:t=P:problem=kreska pseudotaktowa	!	!	!
.	.	.	.	2g\	-fi-	2b-\	glo-
=11-	=11-	=11-	=11-	=11-	=11-	=11-	=11-
!	!	!LO:TX:t=P:problem=kreska pseudotaktowa	!	!	!	!	!
0r	.	0r	.	2.f\	-ca-	2.a\	-ri-
!	!	!	!	!	!	!LO:TX:t=P:problem=kreska pseudotaktowa	!
.	.	.	.	4e\	.	4g/	-fi-
.	.	.	.	2d\	.	2fny/	-ca-
.	.	.	.	2c\	-m(us)	2e/	-m(us)
=12-	=12-	=12-	=12-	=12-	=12-	=12-	=12-
!	!	!	!	!LO:TX:t=P:problem=kreska pseudotaktowa	!	!	!
1BB-/	Gra-	2r	.	1d\	Te.	2d,</	Te.
.	.	1B-/	Gra-	.	.	1f/	Gra-
2BB-/	-ti-	.	.	1d\	Gra-	.	.
!LO:TX:t=P:problem=kreska pseudotaktowa	!	!	!	!	!	!LO:TX:t=P:problem=kreska pseudotaktowa	!
2BB-/	-as	2B-/	-ti-	.	.	2f/	-ti-
=13-	=13-	=13-	=13-	=13-	=13-	=13-	=13-
!	!	!LO:TX:t=P:problem=kreska pseudotaktowa	!	!	!	!LO:TX:t=P:problem=kreska pseudotaktowa	!
!LO:LB:g=original	!	!	!	!	!	!LO:LB:g=original	!
*xywh-#291:7242,2866,5728,680	*	*	*	*	*	*xywh-#42:1463,3532,5558,913	*
2.BB-/	a-	1B-/	-as	2d\	-ti-	1f/	-as
.	.	.	.	2d\	-as	.	.
4C/	.	.	.	.	.	.	.
2D\	-gi-	2A/	a-	1.d\	a-	2f/	a-
!LO:TX:t=P:problem=kreska pseudotaktowa	!	!	!	!	!	!	!
2GG/	-mus	1G/	-gi-	.	.	1b-\	-gi-
=14-	=14-	=14-	=14-	=14-	=14-	=14-	=14-
*lig	*	*	*	*	*	*	*
1D\	Ti-	.	.	.	.	.	.
*	*	*	*	*custos:B	*	*	*
!	!	!	!	!LO:TX:t=P:problem=kreska pseudotaktowa	!	!	!
.	.	2F/	-m(us)	2d\	-gi-	2a\	-m(us)
!	!	!	!	!LO:LB:g=original	!	!	!
*	*	*	*	*xywh-#126:1369,4129,5766,755	*	*	*
1E\	.	1G/	Ti-	2B-/	-mus	1g\	Ti-
.	.	.	.	2c\	Ti-	.	.
*Xlig	*	*	*	*	*	*	*
=15-	=15-	=15-	=15-	=15-	=15-	=15-	=15-
!LO:TX:t=P:problem=kreska pseudotaktowa	!	!LO:TX:t=P:problem=kreska pseudotaktowa	!	!LO:TX:t=P:problem=kreska pseudotaktowa	!	!LO:TX:t=P:problem=kreska pseudotaktowa	!
0.D\	-bi.	1A/	-bi	0d\	-bi	0.f/	-bi.
.	.	2r	.	.	.	.	.
.	.	2A/	p(ro)-	.	.	.	.
=16-	=16-	=16-	=16-	=16-	=16-	=16-	=16-
.	.	2A/	-pter	00r	.	.	.
.	.	2A/	ma-	.	.	.	.
2r	.	2B-/	.	.	.	00r	.
!	!	!LO:TX:t=P:problem=kreska pseudotaktowa	!	!	!	!	!
2D\	pro-	2A/	-gn(am)	.	.	.	.
=17-	=17-	=17-	=17-	=17-	=17-	=17-	=17-
2D\	-pter	1d\	glo-	.	.	.	.
!LO:TX:t=P:problem=kreska pseudotaktowa	!	!	!	!	!	!	!
2D\	ma-	.	.	.	.	.	.
2E\	.	2c\	.	.	.	.	.
2D\	-gnam	1d\	.	.	.	.	.
=18-	=18-	=18-	=18-	=18-	=18-	=18-	=18-
!	!	!	!	!LO:TX:t=P:problem=kreska pseudotaktowa	!	!	!
1G\	glo-	.	.	0r	.	.	.
.	.	4c/	-ri-	.	.	.	.
.	.	4B-/	.	.	.	.	.
2.F\	.	2A/	-am	.	.	00r	.
.	.	2.c/	.	.	.	.	.
!LO:TX:t=P:problem=kreska pseudotaktowa	!	!	!	!	!	!	!
4E\	-ri-	.	.	.	.	.	.
=19-	=19-	=19-	=19-	=19-	=19-	=19-	=19-
!	!	!	!	!LO:TX:t=P:problem=brak 2/1	!	!	!
2D\	-am-	.	.	0ryy	.	.	.
.	.	4B-/	.	.	.	.	.
4C/	.	1B-/	tu-	.	.	.	.
4BB-/	.	.	.	.	.	.	.
1C/	-tu-	.	.	.	.	.	.
.	.	2A/	.	.	.	.	.
=20-	=20-	=20-	=20-	=20-	=20-	=20-	=20-
!LO:TX:t=P:problem=kreska pseudotaktowa	!	!LO:TX:t=P:problem=kreska pseudotaktowa	!	!	!	!	!
0.BB-/	-am	0.B-/	-am	2.f\	Do-	.	.
.	.	.	.	4f\	-mi-	.	.
!	!	!	!	!	!	!LO:TX:t=P:problem=kreska pseudotaktowa	!
.	.	.	.	2f\	-ne	1r	.
!	!	!	!	!LO:TX:t=P:problem=kreska pseudotaktowa	!	!	!
.	.	.	.	2f\	DE-	.	.
=21-	=21-	=21-	=21-	=21-	=21-	=21-	=21-
.	.	.	.	2.d\	-US	2.f/	Do-
.	.	.	.	8c/L	.	4f/	-mi-
.	.	.	.	8B-/J	.	.	.
!	!	!LO:TX:t=P:problem=kreska pseudotaktowa	!	!	!	!	!
00r	.	00r	.	2A/	.	2f/	-ne
.	.	.	.	2B-/	Rex	2g/	.
=22-	=22-	=22-	=22-	=22-	=22-	=22-	=22-
!	!	!	!	!	!	!LO:TX:t=P:problem=kreska pseudotaktowa	!
.	.	.	.	2c\	.	1a\	DE-
.	.	.	.	2.d\	cae-	.	.
.	.	.	.	.	.	2f/	-US
.	.	.	.	4c/	.	.	.
.	.	.	.	4B-/	-le	1g\	Rex-
!	!	!	!	!LO:TX:t=P:problem=kreska pseudotaktowa	!	!	!
.	.	.	.	4A/	.	.	.
=23-	=23-	=23-	=23-	=23-	=23-	=23-	=23-
.	.	.	.	2G,</	ſtis	.	.
!	!	!	!	!	!	!LO:TX:t=P:problem=kreska pseudotaktowa	!
.	.	.	.	1d\	DE-	2f/	-cae-
!LO:TX:t=P:problem=kreska pseudotaktowa	!	!	!	!	!	!	!
00r	.	1A/	DE-	.	.	2.e/	-le-
.	.	.	.	2c\	.	.	.
.	.	.	.	.	.	4f/	.
=24-	=24-	=24-	=24-	=24-	=24-	=24-	=24-
.	.	2G/	-US	2d\	-US	2g\	.
.	.	2F/	.	2.f\	Pa-	2a\	.
*	*	*	*	*	*	*lig	*
.	.	1B-/	Pa-	.	.	1d/	.
.	.	.	.	4e\	.	.	.
.	.	.	.	1d\	-ter	.	.
=25-	=25-	=25-	=25-	=25-	=25-	=25-	=25-
.	.	1A/	-ter	.	.	1e/	.
!	!	!	!	!LO:TX:t=P:problem=kreska pseudotaktowa	!	!	!
.	.	.	.	2c\	O-	.	.
*	*	*	*	*	*	*Xlig	*
!	!	!	!	!	!	!LO:TX:t=P:problem=kreska pseudotaktowa	!
1D\	DE-	2.A/	o-	2d\	-mni-	1d/	-stis
.	.	.	.	2F/	.	.	.
!	!	!LO:TX:t=P:problem=kreska pseudotaktowa	!	!	!	!	!
.	.	4B-/	.	.	.	.	.
=26-	=26-	=26-	=26-	=26-	=26-	=26-	=26-
!	!	!	!	!	!	!LO:TX:t=P:problem=kreska pseudotaktowa	!
*	*	*xywh-#202:1402,4102,5652,795	*	*	*	*	*
2C/	-US	2c\	.	1G/	.	0r	.
!LO:TX:t=P:problem=kreska pseudotaktowa	!	!	!	!	!	!	!
2BB-/	.	1d\	.	.	.	.	.
1E\	Pa-	.	.	1G/	-po-	.	.
.	.	2c\	.	.	.	.	.
=27-	=27-	=27-	=27-	=27-	=27-	=27-	=27-
!LO:TX:t=P:problem=kreska pseudotaktowa	!	!	!	!LO:TX:t=P:problem=kreska pseudotaktowa	!	!	!
1D\	-ter	2.d\	.	1A/	-tens	1a\	DE-
!	!	!LO:TX:t=P:problem=kreska pseudotaktowa	!	!	!	!	!
.	.	4c/	.	.	.	.	.
!	!	!	!	!LO:TX:t=P:problem=kreska pseudotaktowa	!	!	!
2E\	O-	4B-/	.	0r	.	2g/	-US
.	.	4A/	.	.	.	.	.
!	!	!	!	!	!	!LO:TX:t=P:problem=kreska pseudotaktowa	!
2D\	-mni-	1B-/	-mni-	.	.	2f/	Pa-
=28-	=28-	=28-	=28-	=28-	=28-	=28-	=28-
2.BB-/	.	.	.	.	.	1b-\	-ter
.	.	4A/	-po-	.	.	.	.
4C/	.	4G/	.	.	.	.	.
2.D\	.	2F/	-tens	1d\	DE-	1.a\	O-
.	.	2.f\	O-	.	.	.	.
!LO:TX:t=P:problem=kreska pseudotaktowa	!	!	!	!	!	!	!
4E\	.	.	.	.	.	.	.
=29-	=29-	=29-	=29-	=29-	=29-	=29-	=29-
2F\	.	.	.	2c\	-US	.	.
.	.	4e\	.	.	.	.	.
!	!	!LO:TX:t=P:problem=kreska pseudotaktowa	!	!	!	!LO:TX:t=P:problem=kreska pseudotaktowa	!
2G\	.	2d\	.	2B-/	Pa-	2b-\	.
!	!	!	!	!LO:TX:t=P:problem=kreska pseudotaktowa	!	!	!
!	!	!	!	!LO:TX:t=P:♭above:problem	!	!	!
1C/	.	2.c/	.	1e-X\,<	-ter	2a\	.
.	.	.	.	.	.	2g\	.
.	.	4B-/	.	.	.	.	.
=30-	=30-	=30-	=30-	=30-	=30-	=30-	=30-
0D\	-po-	4A/	.	1d\	O-	2f/	-mni-
.	.	4G/	.	.	.	.	.
.	.	2B-/	-mni-	.	.	1g\	-po-
.	.	1A/	-po-	1.d\	-(mni)-	.	.
.	.	.	.	.	.	2f/	.
=31-	=31-	=31-	=31-	=31-	=31-	=31-	=31-
!LO:TX:t=P:problem=kreska pseudotaktowa	!	!LO:TX:t=P:problem=kreska pseudotaktowa	!	!	!	!LO:TX:t=P:problem=kreska pseudotaktowa	!
1GG/	-tens	1G/	.	.	.	1g\,	-tens.
.	.	.	.	2d\	-po-	.	.
*	*	*	*	*custos:d	*	*	*
!	!	!	!	!LO:TX:t=P:problem=kreska pseudotaktowa	!	!	!
!LO:LB:g=original	!	!	!	!	!	!LO:LB:g=original	!
*xywh-#291:7212,3420,6042,613	*	*	*	*	*	*xywh-#42:1390,4087,5733,964	*
1D\	Do-	1A/	-tens	1d\	-tens.	1f/	Do-
=32-	=32-	=32-	=32-	=32-	=32-	=32-	=32-
!	!	!	!	!LO:PB:g=original	!	!	!
*	*	*	*	*xywh-#126:7348,807,5810,675	*	*	*
2D\	-mi-	2A/	Do-	2r	.	2f/	-mi-
1D\	-ne	1A/	-mi-	1d\	Do-	1f/	-ne
!LO:TX:t=P:problem=kreska pseudotaktowa	!	!	!	!LO:TX:t=P:problem=kreska pseudotaktowa	!	!	!
2D\	Fi-	2A/	-ne	2d\	-mi-	2f/	Fi-
=33-	=33-	=33-	=33-	=33-	=33-	=33-	=33-
2C,</	-li	2c\	Fi-	2eny\	-ne	2g,</	-li
!	!	!LO:TX:t=P:problem=kreska pseudotaktowa	!	!	!	!LO:TX:t=P:problem=kreska pseudotaktowa	!
2C/	U-	2c\	-li	2e\	Fi-	2g/	U-
2D\	-ni-	2.A/	U-	2d\	-li	2.f/	-ni-
1F\	-ge-	.	.	4c/	.	.	.
.	.	4B-/	-ni-	4B-/	.	4g/	.
=34-	=34-	=34-	=34-	=34-	=34-	=34-	=34-
.	.	4c\	-ge-	2A/	U-	4a\	-ge-
.	.	4d\	.	.	.	4b-\	.
!LO:TX:t=P:problem=kreska pseudotaktowa	!	!	!	!	!	!	!
2C/	-ni-	2.e\	.	4G/	-ni-	1cc\	.
.	.	.	.	4A/	.	.	.
*lig	*	*	*	*	*	*	*
1G\	-te	.	.	4B-/	-ge-	.	.
.	.	4d\	.	4c/	.	.	.
.	.	4c/	.	4d/	.	1b-\	.
.	.	4B-/	.	4e/	.	.	.
=35-	=35-	=35-	=35-	=35-	=35-	=35-	=35-
1F\	.	2.c/	.	2f\	.	.	.
.	.	.	.	2f\	-ni-	2a\	-ni-
.	.	4c/	-ni-	.	.	.	.
*Xlig	*	*	*	*	*	*	*
!LO:TX:t=P:problem=kreska pseudotaktowa	!	!LO:TX:t=P:problem=kreska pseudotaktowa	!	!LO:TX:t=P:problem=kreska pseudotaktowa	!	!LO:TX:t=P:problem=kreska pseudotaktowa	!
1BB-/,<	.	1B-/	-te	1d\	-te	1b-\	-te
=36-	=36-	=36-	=36-	=36-	=36-	=36-	=36-
0BB-/	Je-	0d\	Je-	0f\	Je-	0b-\	Je-
=37-	=37-	=37-	=37-	=37-	=37-	=37-	=37-
!	!	!	!	!LO:TX:t=P:problem=kreska pseudotaktowa	!	!	!
!LO:TX:t=P:problem=kreska pseudotaktowa	!	!	!	!LO:TX:t=P:♮above:problem	!	!LO:TX:t=P:problem=kreska pseudotaktowa	!
1C/	-su	1c\	-su	1en\	-su	1g\	-su
1D\	X-	1A/	x-	1.d\	Chri-	1f/	Chri-
=38-	=38-	=38-	=38-	=38-	=38-	=38-	=38-
!LO:TX:t=P:problem=kreska pseudotaktowa	!	!LO:TX:t=P:problem=kreska pseudotaktowa	!	!	!	!	!
0.AA/	-te	1A/	-te	.	.	1.a\	.
.	.	.	.	4c/	.	.	.
.	.	.	.	4B-/	.	.	.
.	.	2r	.	2c\	.	.	.
.	.	2A/	D(o-	1d\	.	4g/	.
!	!	!	!	!	!	!LO:TX:t=P:problem=kreska pseudotaktowa	!
.	.	.	.	.	.	4f/	.
=39-	=39-	=39-	=39-	=39-	=39-	=39-	=39-
.	.	2A/	-mi)-	.	.	1e/	.
.	.	2A/	-ne	2c\	.	.	.
!	!	!	!	!LO:TX:t=P:problem=kreska pseudotaktowa	!	!LO:TX:t=P:problem=kreska pseudotaktowa	!
2r	.	2B-/	DE-	0d\	-ste	1d/	-ste
2D\	Do-	1A/	-us)	.	.	.	.
=40-	=40-	=40-	=40-	=40-	=40-	=40-	=40-
2D\	-mi-	.	.	.	.	1r	.
!LO:TX:t=P:problem=kreska pseudotaktowa	!	!LO:TX:t=P:problem=kreska pseudotaktowa	!	!	!	!	!
2D\	-ne	2F/	A-	.	.	.	.
!	!	!LO:PB:g=original	!	!	!	!	!
*	*	*xywh-#202:7287,795,5749,730	*	*	*	*	*
2E\	DE-	2G/	.	1r	.	2r	.
2.D/	-US	2A/	.	.	.	2a\	Do-
=41-	=41-	=41-	=41-	=41-	=41-	=41-	=41-
!	!	!LO:TX:t=P:problem=kreska pseudotaktowa	!	!	!	!	!
.	.	1F/	-gnus	2r	.	2a\	-mi-
4C/	.	.	.	.	.	.	.
!	!	!	!	!LO:TX:t=P:problem=kreska pseudotaktowa	!	!LO:TX:t=P:problem=kreska pseudotaktowa	!
4BB-/	.	.	.	2d\	Do-	2a\	-ne
!LO:TX:t=P:problem=kreska pseudotaktowa	!	!	!	!	!	!	!
4AA/	.	.	.	.	.	.	.
2GG,</	.	2.G/	De-	2d\	-mi-	1b-\	D(e-
!	!	!	!	!LO:TX:t=P:problem=kreska pseudotaktowa	!	!	!
2G\	A-	.	.	2d\	-ne	.	.
.	.	8A/L	.	.	.	.	.
.	.	8B-/J	.	.	.	.	.
=42-	=42-	=42-	=42-	=42-	=42-	=42-	=42-
2.F\	-gnus-	2c\	-i	1f\	DE-	2a\	-us)
.	.	1c\	Fi-	.	.	2f/	A-
8E\L	.	.	.	.	.	.	.
!LO:TX:t=P:problem=kreska pseudotaktowa	!	!	!	!	!	!	!
8D\J	.	.	.	.	.	.	.
2C/	-De-	.	.	2e,<\	-(us)	2g/	-gn(us)
!	!	!LO:TX:t=P:problem=kreska pseudotaktowa	!	!	!	!	!
2D\	.	2A/	-li-	1d\	A-	2f/	De-
=43-	=43-	=43-	=43-	=43-	=43-	=43-	=43-
!	!	!	!	!	!	!LO:TX:t=P:problem=kreska pseudotaktowa	!
1AA/	.	1A/	-us	.	.	1e/	-i
.	.	.	.	2c/	.	.	.
!	!	!	!	!	!	!LO:TX:t=P:problem=kreska pseudotaktowa	!
2BB-/	.	2F/	Pa-	2d\	-gn(us)	1r	.
2GG/	.	1G/	.	2B-/	.	.	.
=44-	=44-	=44-	=44-	=44-	=44-	=44-	=44-
!LO:TX:t=P:problem=kreska pseudotaktowa	!	!	!	!	!	!	!
1D\	.	.	.	1A/	De-	1a\	Fi-
.	.	2F/	.	.	.	.	.
!	!	!LO:TX:t=P:problem=kreska pseudotaktowa	!	!	!	!	!
2GG,</	-i	1G/	.	2G,</	-i	1b-\	-li-
2GG/	Fi-	.	.	1d\	Fi-	.	.
=45-	=45-	=45-	=45-	=45-	=45-	=45-	=45-
1D\	-li-	4F/	.	.	.	1a\	-(us)
.	.	4G/	.	.	.	.	.
.	.	4A/	.	2f\	-li-	.	.
.	.	4B-/	.	.	.	.	.
2C/	-(us)	2c\	.	2e,<\	-us	2a\	Pa-
!	!	!LO:TX:t=P:problem=kreska pseudotaktowa	!	!	!	!	!
2BB-/	.	2d\	.	1d\	Pa-	2.b-\	.
=46-	=46-	=46-	=46-	=46-	=46-	=46-	=46-
*lig	*	*	*	*	*	*	*
!LO:TX:t=P:♭above:problem	!	!	!	!	!	!	!
*	*	*lig	*	*	*	*	*
1E-X\	Pa-	1G/	.	.	.	.	.
.	.	.	.	.	.	4a\	.
.	.	.	.	2c\	.	1g\	.
1D\	.	1A/	.	1d\	.	.	.
.	.	.	.	.	.	2f#X/	.
*Xlig	*	*Xlig	*	*	*	*	*
=47-	=47-	=47-	=47-	=47-	=47-	=47-	=47-
0GG/;	-tris.	0G/;	-tris	0Bn/;	-tris	0g\;	-tris.
=48||	=48||	=48||	=48||	=48||	=48||	=48||	=48||
*M2/1	*	*M2/1	*	*M2/1	*	*M2/1	*
*met(c|)	*	*met(c|)	*	*met(c|)	*	*met(c|)	*
!	!	!	!	!LO:TX:t=P:problem=kreska pseudotaktowa	!	!LO:PB:g=original	!
!	!	!	!	!LO:TX:t=P:problem=przed kluczem inicjał Q	!	!LO:TX:t=P:problem=przed kluczem inicjał Q	!
!	!	!	!	!LO:LB:g=original	!	!	!
*xywh-#291:7212,3928,6132,575	*	*	*	*xywh-#126:7348,1403,5919,624	*	*xywh-#42:7106,787,5849,687	*
00r	.	00r	.	0r	.	1g\	Qui
.	.	.	.	.	.	2g/	tol-
!	!	!	!	!	!	!LO:TX:t=P:problem=kreska pseudotaktowa	!
.	.	.	.	.	.	2g/	-lis
=49-	=49-	=49-	=49-	=49-	=49-	=49-	=49-
.	.	.	.	1d\	Qui	1b-\	pec-
.	.	.	.	2d\	tol-	1a\	-ca-
.	.	.	.	2d\	-lis	.	.
=50-	=50-	=50-	=50-	=50-	=50-	=50-	=50-
!	!	!LO:TX:t=P:problem=kreska pseudotaktowa	!	!	!	!	!
00r	.	0r	.	2.f\	pec-	2.a\	-ta
.	.	.	.	4e\	-ca-	4g/	.
.	.	.	.	2d\	-ta	2fny/	mun-
!	!	!	!	!	!	!LO:TX:t=P:problem=kreska pseudotaktowa	!
.	.	.	.	2c\	mun-	2e/	.
=51-	=51-	=51-	=51-	=51-	=51-	=51-	=51-
!	!	!	!	!LO:TX:t=P:problem=kreska pseudotaktowa	!	!	!
.	.	2r	.	1d\	-di	1d/,	-di
.	.	2G/	Mi-	.	.	.	.
.	.	2G/	-ſe-	2r	.	0g\	mi-
!	!	!LO:TX:t=P:problem=kreska pseudotaktowa	!	!LO:TX:t=P:problem=kreska pseudotaktowa	!	!	!
.	.	2G/	-re-	2G/	mi-	.	.
=52-	=52-	=52-	=52-	=52-	=52-	=52-	=52-
00r	.	2.B-/	-re	2G/	-ſe-	.	.
!	!	!	!	!LO:TX:t=P:problem=kreska pseudotaktowa	!	!	!
.	.	.	.	2G/	-re-	.	.
.	.	4c/	.	.	.	.	.
.	.	2.d\	no-	2.B-/	-[re]	1.f/	-ſe-
.	.	4c/	.	4c\	.	.	.
=53-	=53-	=53-	=53-	=53-	=53-	=53-	=53-
.	.	2B-/	.	2d\	.	.	.
!	!	!	!	!LO:TX:t=P:♭above:problem	!	!LO:TX:t=P:problem=kreska pseudotaktowa	!
.	.	2G/	.	2.e-X\	no-	2g/	-re-
.	.	2A/	.	.	.	2f/	-re-
.	.	.	.	4d\	.	.	.
.	.	2B-/	.	1d\	.	4e/	.
.	.	.	.	.	.	4d/	.
=54-	=54-	=54-	=54-	=54-	=54-	=54-	=54-
!LO:TX:t=P:problem=kreska pseudotaktowa	!	!LO:TX:t=P:problem=kreska pseudotaktowa	!	!	!	!	!
1r	.	0.A/	-bis.	.	.	1e/	-no-
.	.	.	.	2c\	.	.	.
!	!	!	!	!LO:TX:t=P:problem=kreska pseudotaktowa	!	!LO:TX:t=P:problem=kreska pseudotaktowa	!
1D\	Qui	.	.	0d\	-bis.	1d/	-bis.
=55-	=55-	=55-	=55-	=55-	=55-	=55-	=55-
2D\	tol-	.	.	.	.	00r	.
!LO:TX:t=P:problem=kreska pseudotaktowa	!	!	!	!	!	!	!
2D\	-lis	.	.	.	.	.	.
2.F\	pec-	2r	.	00r	.	.	.
.	.	2A/	Qui	.	.	.	.
4E\	.	.	.	.	.	.	.
=56-	=56-	=56-	=56-	=56-	=56-	=56-	=56-
2D/	-ca-	2A/	tol-	.	.	.	.
!LO:TX:t=P:problem=kreska pseudotaktowa	!	!	!	!	!	!	!
2C/	-ta	2A/	-lis	.	.	.	.
1D\	mun-	2B-/	pec-	.	.	.	.
*	*	*custos:B	*	*	*	*	*
!	!	!LO:TX:t=P:problem=kreska pseudotaktowa	!	!	!	!	!
.	.	2A/	-ca-	.	.	.	.
=57-	=57-	=57-	=57-	=57-	=57-	=57-	=57-
!	!	!LO:LB:g=original	!	!	!	!	!
*	*	*xywh-#202:7203,1358,5859,711	*	*	*	*	*
2BB-/	.	2d\	-ta	.	.	0r	.
2C/	.	1c\	mun-	.	.	.	.
2D,<\	-di	.	.	0r	.	.	.
2E\	Suſ-	1B-/	.	.	.	.	.
=58-	=58-	=58-	=58-	=58-	=58-	=58-	=58-
!	!	!	!	!	!	!LO:TX:t=P:problem=kreska pseudotaktowa	!
1C/	-ci-	.	.	.	.	1r	.
.	.	2A/	.	.	.	.	.
!LO:TX:t=P:problem=kreska pseudotaktowa	!	!LO:TX:t=P:problem=kreska pseudotaktowa	!	!LO:TX:t=P:problem=kreska pseudotaktowa	!	!	!
0BB-/	-pe	0B-/	-di.	1r	.	1.d/	Suſ-
=59-	=59-	=59-	=59-	=59-	=59-	=59-	=59-
.	.	.	.	2r	.	.	.
.	.	.	.	1d\	Suſ-	2d/	-ci-
2r	.	1r	.	.	.	(2.f/	-pe
!	!	!	!	!LO:TX:t=P:problem=kreska pseudotaktowa	!	!	!
*	*ij	*	*	*	*	*	*
1D\	Suſ-	.	.	2d\	-ci-	.	.
!	!	!	!	!	!	!LO:TX:t=P:problem=kreska pseudotaktowa	!
.	.	.	.	.	.	4g/)	.
=60-	=60-	=60-	=60-	=60-	=60-	=60-	=60-
.	.	2r	.	2.f\	-pe	1a\,<	.
!LO:TX:t=P:problem=kreska pseudotaktowa	!	!	!	!	!	!	!
2D\	-ci-	1A/	Suſ-	.	.	.	.
.	.	.	.	8eny\L	.	.	.
.	.	.	.	8d\J	.	.	.
1F\,<	-pe	.	.	2c,<\	.	1.f/	de-
*	*Xij	*	*	*	*	*	*
!	!	!LO:TX:t=P:problem=kreska pseudotaktowa	!	!	!	!	!
.	.	2A/	-ci-	2c\	de-	.	.
=61-	=61-	=61-	=61-	=61-	=61-	=61-	=61-
1BB-/	de-	2B-/	-pe	1d\	-pre-	.	.
.	.	1B-/	de-	.	.	2f/	-pre-
2BB-/	-pre-	.	.	1.d\	-ca-	2f/	-ca-
!	!	!LO:TX:t=P:problem=kreska pseudotaktowa	!	!	!	!LO:TX:t=P:problem=kreska pseudotaktowa	!
1BB-/	-ca-	2B-/	-pre-	.	.	2f/	-ti-
=62-	=62-	=62-	=62-	=62-	=62-	=62-	=62-
.	.	2F/	-ca-	.	.	1b-\	-o-
!LO:TX:t=P:problem=kreska pseudotaktowa	!	!	!	!LO:TX:t=P:problem=kreska pseudotaktowa	!	!	!
2GG/	-ti-	1G/	-ti-	2d\	-ti-	.	.
1D\	-o-	.	.	1d\	-o-	2a,<\	-nem
.	.	2F/	-o-	.	.	2.b-\	no-
=63-	=63-	=63-	=63-	=63-	=63-	=63-	=63-
!LO:TX:t=P:problem=kreska pseudotaktowa	!	!LO:TX:t=P:problem=kreska pseudotaktowa	!	!	!	!	!
1E\	-nem	1G/	-nem	2B-/	-nem	.	.
.	.	.	.	.	.	4a\	.
.	.	.	.	2c\	.	1g\	.
1D\	no-	1A/	no-	1d\	no-	.	.
.	.	.	.	.	.	2f#X/	.
=64-	=64-	=64-	=64-	=64-	=64-	=64-	=64-
!LO:TX:t=P:problem=kreska pseudotaktowa	!	!LO:TX:t=P:problem=kreska pseudotaktowa	!	!LO:TX:t=P:problem=kreska pseudotaktowa	!	!LO:TX:t=P:problem=kreska pseudotaktowa	!
0GG/	-ſtram	1G/	-ſtram	0.d\	-stram	0g\	-stram
.	.	2r	.	.	.	.	.
.	.	1G/	Qui	.	.	.	.
=65-	=65-	=65-	=65-	=65-	=65-	=65-	=65-
!	!	!	!	!	!	!LO:LB:g=original	!
*	*	*	*	*xywh-#126:7377,1875,5686,762	*	*xywh-#42:7087,1251,6065,791	*
2r	.	.	.	.	.	00r	.
!	!	!LO:TX:t=P:problem=kreska pseudotaktowa	!	!	!	!	!
1G\	Qui	2G/	se-	.	.	.	.
!	!	!	!	!LO:TX:t=P:problem=kreska pseudotaktowa	!	!	!
!	!	!	!	!LO:LB:g=original	!	!	!
.	.	2.B-/	-des	00r	.	.	.
!LO:TX:t=P:problem=kreska pseudotaktowa	!	!	!	!	!	!	!
2G\	se-	.	.	.	.	.	.
.	.	4c/	ad	.	.	.	.
=66-	=66-	=66-	=66-	=66-	=66-	=66-	=66-
2G,<\	-des	1d\	dex-	.	.	.	.
2D\	ad	.	.	.	.	.	.
2.G\	dex-	2e\	-te-	.	.	.	.
.	.	1d\	-ram	.	.	.	.
4G\	-te-	.	.	.	.	.	.
=67-	=67-	=67-	=67-	=67-	=67-	=67-	=67-
!	!	!	!	!	!	!LO:TX:t=P:problem=kreska pseudotaktowa	!
2F\	-ram	.	.	.	.	1r	.
2E\	P(a-	2c\	P(a-	.	.	.	.
!LO:TX:t=P:problem=kreska pseudotaktowa	!	!LO:TX:t=P:problem=kreska pseudotaktowa	!	!	!	!	!
0D\	-t)ris	0d\	-t)ris;	2r	.	2r	.
.	.	.	.	2d\	mi-	2dd\	mi-
=68-	=68-	=68-	=68-	=68-	=68-	=68-	=68-
.	.	.	.	2.f\	-ſe-	2.dd\	-ſe-
!	!	!	!	!	!	!LO:TX:t=P:problem=kreska pseudotaktowa	!
.	.	.	.	4e\	.	4cc\	-re-
1r	.	2r	.	2d\	-re-	2b-,<\	-re
!	!	!	!	!LO:TX:t=P:problem=kreska pseudotaktowa	!	!	!
.	.	1F/	Quo-	2c\	-re	2a\	no-
=69-	=69-	=69-	=69-	=69-	=69-	=69-	=69-
!	!	!	!	!	!	!LO:TX:t=P:problem=kreska pseudotaktowa	!
1BB-/	Quo-	.	.	2.B-/	no-	0b-\	-bis
.	.	2F/	-ni-	.	.	.	.
.	.	.	.	4c/	.	.	.
!	!	!	!	!LO:TX:t=P:problem=kreska pseudotaktowa	!	!	!
2BB-/	-ni-	2F,</	-am	1d\	-bis.	.	.
*custos:C	*	*	*	*	*	*	*
!LO:TX:t=P:problem=kreska pseudotaktowa	!	!	!	!	!	!	!
2BB-/	-am	1G/	Tu	.	.	.	.
=70-	=70-	=70-	=70-	=70-	=70-	=70-	=70-
!LO:LB:g=original	!	!	!	!LO:TX:t=P:problem=kreska pseudotaktowa	!	!LO:TX:t=P:problem=kreska pseudotaktowa	!
*xywh-#291:7189,4399,6416,695	*	*	*	*	*	*	*
1C/	Tu	.	.	00r	.	00r	.
!	!	!LO:TX:t=P:problem=kreska pseudotaktowa	!	!	!	!	!
.	.	2A/	.	.	.	.	.
!LO:TX:t=P:problem=kreska pseudotaktowa	!	!	!	!	!	!	!
1D\	so-	2B-/	so-	.	.	.	.
.	.	1A/	-l(us)	.	.	.	.
=71-	=71-	=71-	=71-	=71-	=71-	=71-	=71-
2BB-/	-lus	.	.	.	.	.	.
2C/	.	1G/	S(an)-	.	.	.	.
1AA/	S(an)-	.	.	.	.	.	.
!	!	!LO:TX:t=P:problem=kreska pseudotaktowa	!	!	!	!	!
.	.	2F/	.	.	.	.	.
=72-	=72-	=72-	=72-	=72-	=72-	=72-	=72-
2GG,</	-ct(us)	2G,</	-ct(us)	2r	.	2r	.
!	!	!	!	!	!	!LO:TX:t=P:problem=kreska pseudotaktowa	!
2G\	Tu	2B-/	Tu	2d\	Tu	2g\	Tu
2G\	so-	2B-/	so-	2d\	so-	2g/	so-
!LO:TX:t=P:problem=kreska pseudotaktowa	!	!	!	!LO:TX:t=P:problem=kreska pseudotaktowa	!	!	!
2G\	-l(us)	2B-/	-l(us)	2d\	-l(us)	2g/	-lus
=73-	=73-	=73-	=73-	=73-	=73-	=73-	=73-
2C/	D(o-	2c/	Do-	2e\	Do-	2g/	D(o-
2C/	-mi)-	2c/	-mi-	2e\	-mi-	2g/	-mi)-
!LO:TX:t=P:problem=kreska pseudotaktowa	!	!LO:TX:t=P:problem=kreska pseudotaktowa	!	!	!	!LO:TX:t=P:problem=kreska pseudotaktowa	!
1D\	-n(us)	1A/,<	-n(us)	1d\,<	-n(us)	1fny/,<	-nus
=74-	=74-	=74-	=74-	=74-	=74-	=74-	=74-
!	!	!LO:LB:g=original	!	!	!	!	!
*	*	*xywh-#202:7200,1884,6342,661	*	*	*	*	*
1BB-/	Tu	1B-/	Tu	1d\	Tu	1f/	Tu
2BB-/	so-	2B-/	so-	2d\	so-	2f/	so-
1BB-/	-l(us)	1B-/	-lus	2d\	-l(us)	1f/	-lus
=75-	=75-	=75-	=75-	=75-	=75-	=75-	=75-
.	.	.	.	1.d\	al-	.	.
!LO:TX:t=P:problem=kreska pseudotaktowa	!	!	!	!	!	!LO:TX:t=P:problem=kreska pseudotaktowa	!
2GG/	al-	2B-/	al-	.	.	2g/	al-
2.D\	-tiſ-	2A/	-tiſ-	.	.	1.f/	-tiſ-
.	.	2d\	.	4c/	-tiſ-	.	.
!	!	!	!	!LO:TX:t=P:problem=kreska pseudotaktowa	!	!	!
4E\	.	.	.	4B-/	.	.	.
=76-	=76-	=76-	=76-	=76-	=76-	=76-	=76-
2F\	.	2c\	-si-	2A/	-si-	.	.
2G\	.	1B-/	-m(us)	2B-/	.	2e/	-si-
!	!	!	!	!LO:TX:t=P:problem=kreska pseudotaktowa	!	!LO:TX:t=P:problem=kreska pseudotaktowa	!
2.F\	.	.	.	1c\	-m(us)	0f/,<	-m(us)
.	.	2A/	Je-	.	.	.	.
4F\	-si-	.	.	.	.	.	.
=77-	=77-	=77-	=77-	=77-	=77-	=77-	=77-
!LO:TX:t=P:problem=kreska pseudotaktowa	!	!LO:TX:t=P:problem=kreska pseudotaktowa	!	!	!	!	!
1BB-/	-m(us)	1B-/	-su	1d\	Je-	.	.
!	!	!	!	!LO:TX:t=P:problem=kreska pseudotaktowa	!	!	!
1BB-/	Je-	1.B-/	Chri-	0d\	-su	1f/	Je-
=78-	=78-	=78-	=78-	=78-	=78-	=78-	=78-
*lig	*	*	*	*	*	*	*
!	!	!	!	!	!	!LO:TX:t=P:problem=kreska pseudotaktowa	!
1GG/	-su	.	.	.	.	1g\	-su
.	.	4A/	.	.	.	.	.
.	.	4G/	.	.	.	.	.
1.D\	.	1.F/	.	1.d\	Chri-	2.a\	Chri-
.	.	.	.	.	.	4g\	.
*Xlig	*	*	*	*	*	*	*
=79-	=79-	=79-	=79-	=79-	=79-	=79-	=79-
.	.	.	.	.	.	4a\	.
.	.	.	.	.	.	4b-\	.
2C/	.	2G/	.	2e\	.	2.cc\	.
1E\	X-	1G/	.	1c\	.	.	.
.	.	.	.	.	.	4b-\	.
.	.	.	.	.	.	4a\	.
!	!	!	!	!	!	!LO:TX:t=P:problem=kreska pseudotaktowa	!
.	.	.	.	.	.	4g\	.
=80-	=80-	=80-	=80-	=80-	=80-	=80-	=80-
!LO:TX:t=P:problem=kreska pseudotaktowa	!	!LO:TX:t=P:problem=kreska pseudotaktowa	!	!LO:TX:t=P:problem=kreska pseudotaktowa	!	!LO:TX:t=P:problem=kreska pseudotaktowa	!
0D\	-te	0A/	-ste	0d\	-ste	1f/	-ste
.	.	.	.	.	.	2r	.
.	.	.	.	.	.	1a\	Cum-
=81-	=81-	=81-	=81-	=81-	=81-	=81-	=81-
!LO:TX:t=P:problem=kreska pseudotaktowa	!	!	!	!	!	!	!
00r	.	1r	.	1d\	Cum	.	.
!	!	!	!	!	!	!LO:TX:t=P:problem=kreska pseudotaktowa	!
.	.	.	.	.	.	2b-\	.
.	.	2r	.	2e\	.	2g\	-San-
.	.	1A/	Cum-	2.c/	S(an)-	2.a/	-cto
=82-	=82-	=82-	=82-	=82-	=82-	=82-	=82-
.	.	.	.	4A/	-cto	4g/	.
*	*	*	*	*	*	*custos:e	*
!	!	!	!	!	!	!LO:TX:t=P:problem=kreska pseudotaktowa	!
.	.	2B-/	.	1d\	Spi-	2f/	Spi-
!	!	!	!	!	!	!LO:LB:g=original	!
*	*	*	*	*	*	*xywh-#42:7185,1762,5594,732	*
.	.	2G/	-San-	.	.	2.e/	-ri-
!	!	!	!	!LO:TX:t=P:problem=kreska pseudotaktowa	!	!	!
.	.	1A/	.	2c\	-ri-	.	.
.	.	.	.	.	.	4e/	.
=83-	=83-	=83-	=83-	=83-	=83-	=83-	=83-
!	!	!	!	!LO:TX:t=P:problem=kreska pseudotaktowa	!	!LO:TX:t=P:problem=kreska pseudotaktowa	!
!	!	!	!	!LO:LB:g=original	!	!	!
*	*	*	*	*xywh-#126:7399,2398,5287,689	*	*	*
1D\	Cum	.	.	1d\	-tu	1d/	-tu.
!	!	!LO:TX:t=P:problem=kreska pseudotaktowa	!	!	!	!	!
.	.	2F/	.	.	.	.	.
!	!	!	!	!	!	!LO:TX:t=P:problem=kreska pseudotaktowa	!
2E\	San-	2G,</	-cto	0r	.	1r	.
2C/	.	2.A/	Spi-	.	.	.	.
=84-	=84-	=84-	=84-	=84-	=84-	=84-	=84-
2D/	-cto	.	.	.	.	1a\	in
.	.	4G/	.	.	.	.	.
4C/	.	1G/	.	.	.	.	.
!LO:TX:t=P:problem=kreska pseudotaktowa	!	!	!	!	!	!	!
4BB-/	.	.	.	.	.	.	.
!	!	!	!	!LO:TX:t=P:problem=kreska pseudotaktowa	!	!	!
2.AA/	Spi-	.	.	1r	.	2a\	glo-
!	!	!	!	!	!	!LO:TX:t=P:problem=kreska pseudotaktowa	!
.	.	2F#X/	-ri-	.	.	2a\	-ri-
4AA/	-ri-	.	.	.	.	.	.
=85-	=85-	=85-	=85-	=85-	=85-	=85-	=85-
!	!	!LO:TX:t=P:problem=kreska pseudotaktowa	!	!	!	!	!
2GG,</	-tu	1G/	-tu	1d\	in	1.b-\	-a
2G\	in	.	.	.	.	.	.
2G\	glo-	0r	.	2d\	glo-	.	.
!LO:TX:t=P:problem=kreska pseudotaktowa	!	!	!	!	!	!	!
2G\	-ri-	.	.	2d\	-ri-	2g/	De-
=86-	=86-	=86-	=86-	=86-	=86-	=86-	=86-
!	!	!	!	!	!	!LO:TX:t=P:problem=kreska pseudotaktowa	!
2C/	-a	.	.	2e\	-a	1g\	-i
!	!	!	!	!LO:TX:t=P:problem=kreska pseudotaktowa	!	!	!
2C/	De-	.	.	2e\	De-	.	.
2.F\	.	1A/	in	2c\	-i	2.a\	Pa-
.	.	.	.	4F/	Pa-	.	.
4E\	.	.	.	4G/	.	4g/	.
=87-	=87-	=87-	=87-	=87-	=87-	=87-	=87-
2D/	.	2A/	glo-	4A/	.	2f/	.
.	.	.	.	4B-/	.	.	.
2C/	-i	2A/	-ri-	2c/	.	2e/	.
!LO:TX:t=P:problem=kreska pseudotaktowa	!	!	!	!LO:TX:t=P:problem=kreska pseudotaktowa	!	!LO:TX:t=P:problem=kreska pseudotaktowa	!
1BB-/	Pa-	2.B-/	-a	1F/	-tris	1d/	-tris
.	.	4A/	.	.	.	.	.
=88-	=88-	=88-	=88-	=88-	=88-	=88-	=88-
2C/	-tris	2G/	.	2r	.	2e/	a-
!	!	!	!	!LO:TX:t=P:problem=kreska pseudotaktowa	!	!	!
2D/	A-	2Fny/	.	2d\	in	2f/	.
!LO:TX:t=P:problem=kreska pseudotaktowa	!	!LO:TX:t=P:problem=kreska pseudotaktowa	!	!	!	!	!
1GG/	-men	1B-/	De-	2d\	glo-	1g\	.
!	!	!	!	!LO:TX:t=P:problem=kreska pseudotaktowa	!	!	!
.	.	.	.	2d\	-ri-	.	.
=89-	=89-	=89-	=89-	=89-	=89-	=89-	=89-
!LO:PB:g=original	!	!	!	!	!	!	!
*xywh-#292:1177,722,3514,882	*	*	*	*	*	*	*
2r	.	1A/	.	2.f\	-a	2.a\	.
1D\	De-	.	.	.	.	.	.
.	.	.	.	4e\	.	4g/	.
!	!	!LO:TX:t=P:problem=kreska pseudotaktowa	!	!	!	!	!
.	.	1A/	-i	2d\	De-	2f/	.
!LO:TX:t=P:problem=kreska pseudotaktowa	!	!	!	!LO:TX:t=P:problem=kreska pseudotaktowa	!	!LO:TX:t=P:problem=kreska pseudotaktowa	!
2AA/	-i	.	.	2c\	-i	2e/	.
=90-	=90-	=90-	=90-	=90-	=90-	=90-	=90-
1.D\	Pa-	2r	.	2.d\	Pa-	4d/	.
.	.	.	.	.	.	4e/	.
.	.	2A/	in	.	.	4f/	.
.	.	.	.	4e\	.	4g/	.
.	.	2A/	glo-	2f\	.	4a\	.
.	.	.	.	.	.	4b-\	.
!LO:TX:t=P:problem=kreska pseudotaktowa	!	!LO:TX:t=P:problem=kreska pseudotaktowa	!	!	!	!LO:TX:t=P:problem=kreska pseudotaktowa	!
2C/	-tris	2A/	-ri-	2e\	.	2cc\	.
=91-	=91-	=91-	=91-	=91-	=91-	=91-	=91-
1BB-/	A-	2.B-/	-a	1d\	.	1f/	.
.	.	4A/	.	.	.	.	.
2C/	.	2G/	De-	2c/	-tris	2e,</	-men
!	!	!	!	!LO:TX:t=P:problem=kreska pseudotaktowa	!	!	!
1D\	.	2F/	-i	2A/	.	2d/	a-
=92-	=92-	=92-	=92-	=92-	=92-	=92-	=92-
.	.	2.A/	Pa-	2.d\	A-	2.f/	.
4C/	.	.	.	.	.	.	.
!LO:TX:t=P:problem=kreska pseudotaktowa	!	!	!	!	!	!LO:TX:t=P:problem=kreska pseudotaktowa	!
4BB-/	.	4B-/	.	4e\	.	4g/	.
2AA/	.	2c\	.	2f\	.	2a\	.
2GG/	.	1d\	-tris	2g\	.	2.b-\	.
=93-	=93-	=93-	=93-	=93-	=93-	=93-	=93-
2BB-/	.	.	.	2f\	.	.	.
.	.	.	.	.	.	4a\	.
!	!	!	!	!LO:TX:t=P:problem=kreska pseudotaktowa	!	!	!
2C/	.	4c/	.	2e\	.	1g\	.
.	.	4B-/	.	.	.	.	.
1D\	.	1A/	a-	1d\	.	.	.
.	.	.	.	.	.	2f#X/	.
=94-	=94-	=94-	=94-	=94-	=94-	=94-	=94-
0GG/;	-men.	0Bn/;	-men	0d\;	-men.	0g\;	-men.
==	==	==	==	==	==	==	==
*-	*-	*-	*-	*-	*-	*-	*-
!!!RDF**kern: > = above
!!!RDF**kern: < = below
!!!system-decoration: [(s1,s2,s3,s4)]
!!!EED: Andrzej Borzym
!!!EEV: 2021-03-16
!!!ENC: Andrzej Borzym
!!!END: 2021-02-25
!!!ENC-iiif: Konrad Tyszka
!!!END-iiif: 2022-09-03
